X:1
T:Title
%%score { ( 1 4 ) | ( 2 3 ) }
L:1/8
Q:1/4=108
M:3/4
K:G
V:1 treble nm="Grand Piano"
V:4 treble 
V:2 bass 
V:3 bass 
V:1
 [DB]2 [^C_B]2 [D=B]2 | [Ec]4 [DB]2 | [DB]2 [CA]2 [B,^G]2 | [DB]2 [CA]2 z2 | [CA]2 [B,^G]2 [CA]2 | %5
w: W.~J.~Kirkpatrick * *|||||
 [DB]4 [CA]2 | [CA]2 [B,G]2 [CE]2 | [B,D]4 z2 | [DB]2 [^C_B]2 [D=B]2 | [=Fd]4 [Ec]2 | %10
w: |||||
 [Ec]2 [DB]2 [^C_B]2 | [DB]2 [B,G]2 z2 | [B,G]2 [CA]2 [DB]2 | [CE]2 [A,F]2 [_B,G]2 | %14
w: ||||
 [B,D]2 [DB]2 [CA]2 | [B,G]4 z2 | d2 ^c2 d2 | B2 B2 z2 | [DB]2 [^C_B]2 [D=B]2 | %19
w: |||||
 [G,CE]2 [G,CE]2 z2 | [B,^DF]4 .[F,DF]2 | [B,EG]4 .[G,EG]2 | z2 z2 .G2 | [^DB]4 z2 | %24
w: |||||
 [DB]2 _B2 =B2 | [Fd]2 [Fd]2 z2 | G2 A2 B2 | E2 E2 z2 | G4 z2 | z2 B,G Bd | %30
w: ||||||
 d-[Fd-] [Fd][FA] [CFA][DFB][Q:1/4=106][Q:1/4=105][Q:1/4=103][Q:1/4=102][Q:1/4=100][Q:1/4=98][Q:1/4=97][Q:1/4=95][Q:1/4=94][Q:1/4=92][Q:1/4=91][Q:1/4=89][Q:1/4=87][Q:1/4=86][Q:1/4=84][Q:1/4=83] | %31
w: |
 [B,DG]4 z2 |] %32
w: |
V:2
 G,,D, G,2 D,2 | G,,D, G,2 D,2 | D,,D, F,2 D,2 | F,,D, F,2 D,2 | D,,D, F,2 D,2 | D,,D, F,2 D,2 | %6
 G,,D, G,2 D,2 | G,,D, G,2 D,2 | G,,D, G,2 D,2 | G,,D, G,2 D,2 | G,,D, G,2 D,2 | G,,D, G,2 D,2 | %12
 G,,D, G,2 D,2 | G,,C, E,2 C,2 | D,G, [D,F,]2 [D,F,]2 | [G,,D,G,]4 z2 | [G,G]4 z2 | %17
 [G,DG]2 [G,DG]2 z2 | [G,,G,]4 [G,,G,]2 | C,2 C,2 z2 | z2 z A, z B, | z2 z A, z B, | %22
 z2 z G, [C,E,]2 | [B,,F,]4 z2 | z2 ^C2 [G,D]2 | [D,A,]2 [D,A,]2 z2 | G,2 A,2 B,2 | %27
 [C,G,C]2 [C,G,C]2 z2 | [^C,G,_B,]2 .[C,G,]2 z2 | [D,G,B,]2 .[D,G,]2 z2 | %30
 [D,A,][D,A,] [D,A,][D,D] D,D, | G,,4 z2 |] %32
V:3
 x6 | x6 | x6 | x6 | x6 | x6 | x6 | x6 | x6 | x6 | x6 | x6 | x6 | x6 | x6 | x6 | %16
 B,2 _B,2 [G,=B,G]2 | x6 | x6 | x6 | B,,4 B,,2 | E,4 E,2 | C,4 z2 | x6 | G,4 z2 | x6 | x6 | x6 | %28
 x6 | x6 | x6 | x6 |] %32
V:4
 x6 | x6 | x6 | x6 | x6 | x6 | x6 | x6 | x6 | x6 | x6 | x6 | x6 | x6 | x6 | x6 | x6 | x6 | x6 | %19
 x6 | x6 | x6 | [A,EA]4 E-[EA] | x6 | x6 | x6 | x6 | x6 | z2 _B,G FE | D4 z2 | .F2 z2 z2 | x6 |] %32

